images/decor-review-section.svg

<svg width="997" height="1295" viewBox="0 0 997 1295" fill="none" xmlns="http://www.w3.org/2000/svg">
<path opacity="0.6" d="M328.972 143.827L615.806 3.97993L617.987 212.252L329.227 351.94L328.972 143.827Z" fill="#F8F8FD" stroke="#CCCCF5" stroke-width="4"/>
<path d="M261.005 806.224L816.767 522.268L816.767 862.273L261.229 1144.43L261.005 806.224Z" fill="#F8F8FD" stroke="#CCCCF5" stroke-width="4"/>
<path d="M2.00481 1173.24L517.767 919.214L517.767 1229.25L2.22902 1481.48L2.00481 1173.24Z" fill="#F8F8FD" stroke="#CCCCF5" stroke-width="4"/>
</svg>

<svg xmlns="http://www.w3.org/2000/svg" width="997" height="1295" fill="none"><path fill="#F8F8FD" stroke="#CCCCF5" stroke-width="4" d="M328.972 143.827 615.806 3.98l2.181 208.272-288.76 139.688-.255-208.113Z" opacity=".6"/><path fill="#F8F8FD" stroke="#CCCCF5" stroke-width="4" d="m261.005 806.224 555.762-283.956v340.005L261.229 1144.43l-.224-338.206Z"/><path fill="#F8F8FD" stroke="#CCCCF5" stroke-width="4" d="m2.005 1173.24 515.762-254.026v310.036L2.229 1481.48l-.224-308.24Z"/></svg>
